docs/assets/most-popular-mobile.svg

<svg xmlns="http://www.w3.org/2000/svg" xmlns:xlink="http://www.w3.org/1999/xlink" width="389" height="378" fill="none" xmlns:v="https://vecta.io/nano"><style><![CDATA[.B{fill:#ffc404}.C{opacity:.2}.D{stroke:#000}.E{stroke-width:1.59}.F{stroke-linejoin:round}]]></style><path d="M1.039 191.407c49.07 11.634 65.565 74.704 29.982 114.681 47.719-21.176 97.094 17.864 89.686 70.912l14.272-4.749s-.174-9.019 9.805-19.607c31.094-19.106 72.886-10.893 91.102 24.356l14.273-4.749s-3.291-25.468 5.098-48.626c19.175-21.11 49.593-30.369 77.266-17.537l14.272-4.75s-23.162-21.785-27.76-50.368c4.75-27.603 24.862-52.657 54.67-59.563-49.048-11.633-65.543-74.725-29.982-114.702-12.062 5.64-25.604 7.299-38.671 4.738a62.78 62.78 0 0 1-34.019-18.986c-12.769-29.716-2.746-61.436-2.746-61.436l-14.272 4.749c-15.252 24.988-41.138 36.382-65.368 34.138C162.979 29.017 152.999 1 152.999 1l-14.141 4.728V8.93a74.24 74.24 0 0 1-13.299 42.475 74.26 74.26 0 0 1-35.205 27.239c-22.988-.24-33.926-6.775-33.926-6.775l-14.163 4.815c31.66 39.977 8.999 103.068-41.204 114.702l-.022.021z" fill="#efa500" class="D E F"/><use xlink:href="#B" class="B"/><g class="D E F"><use xlink:href="#B"/><path d="M196.732 317.569l7.844-.261c34.183-2.399 66.048-18.153 88.705-43.855a139.68 139.68 0 0 0 36.062-94.049C329.081 109.82 276.416 55.225 209.5 55.225c-2.592 0-5.229 0-7.844.24a130.31 130.31 0 0 0-88.683 43.877c-23.399 25.799-36.294 59.419-36.149 94.245.261 69.475 52.927 123.983 119.908 123.983z" class="B"/></g><path d="M302.763 247.768a149.93 149.93 0 0 0-3.377-150.322l-2.484-3.529c20.295 23.218 31.387 53.062 31.18 83.897.284 72.176-55.628 134.244-124.875 138.644-15.675 1.051-31.4-1.068-46.238-6.23 6.755 1.132 92.388 19.803 145.794-62.46z" fill="#dcf2ae" class="C"/><path d="M164.416 312.471l4.467-8.213c.075-.137.195-.243.339-.301a.67.67 0 0 1 .453-.018c.148.046.276.142.362.271a.68.68 0 0 1 .11.44l-1.09 9.825-5.774-1.416m-7.89-4.292l2.833-3.79c.218-.305.915 0 .893.414l-.501 5.206-4.009-1.699" fill="#000"/><path d="M299.885 234.349c28.407-57.417 8.1-125.396-45.358-151.835s-119.822-1.326-148.229 56.091-8.1 125.397 45.358 151.836 119.822 1.326 148.229-56.091z" class="B D E F"/><g style="mix-blend-mode:multiply" opacity=".47"><path d="M134.737 268.877a155.39 155.39 0 0 0 52.774 10.327c14.668.428 29.276-2.045 42.985-7.28s26.247-13.125 36.896-23.22a96.58 96.58 0 0 0 16.385-21.132 103.88 103.88 0 0 0 5.426-12.2 130.79 130.79 0 0 0 5.142-12.636 110.24 110.24 0 0 0 .589-59.758 113.51 113.51 0 0 0-47.741-63.746c38.415 15.25 65.368 53.702 65.499 100.215.24 63.179-48.634 117.36-109.187 121.216a101.13 101.13 0 0 1-48.663-8.761 101.12 101.12 0 0 1-38.691-30.78c6.166 2.81 12.463 5.294 18.586 7.755z" fill="#efa500"/></g><g style="mix-blend-mode:color-dodge" class="C B"><path d="M125.192 153.217c-1.328-.679-2.345-1.841-2.843-3.247s-.44-2.949.163-4.313c.61-1.155 1.341-2.244 2.179-3.246l.153-.305a5.82 5.82 0 0 1 3.284-2.913c1.434-.505 3.008-.429 4.386.212 1.352.689 2.388 1.872 2.891 3.304s.435 3.003-.189 4.386c-.611 1.156-1.341 2.243-2.179 3.246l-.153.305a5.8 5.8 0 0 1-3.321 2.855c-1.438.48-3.007.378-4.371-.284h0z"/></g><g style="mix-blend-mode:color-dodge" class="C B"><path d="M172.648 138.533c-2.898 1.525-6.057 1.416-7.212-.435a8.71 8.71 0 0 1-.872-2.506.98.98 0 0 0-.13-.196c-1.112-1.721.392-4.815 3.203-6.296s6.035-1.394 7.212.436a8.19 8.19 0 0 1 .893 2.505c-.007.073-.007.146 0 .218 1.199 1.721-.261 4.684-3.094 6.274z"/></g><g style="mix-blend-mode:color-dodge" class="C B"><path d="M137.947 129.122c-1.46.763-3.05.719-3.639-.218-.19-.404-.336-.828-.435-1.263h0c-.545-.872.196-2.418 1.612-3.159s3.029-.719 3.639.218c.213.395.36.821.436 1.263.544.872-.175 2.397-1.613 3.159z"/></g><g style="mix-blend-mode:color-dodge" class="C B"><path d="M153.176 118.447c-.981 2.527-3.007 4.183-4.729 3.638-.687-.261-1.333-.62-1.917-1.067-.058-.012-.117-.012-.174 0-1.635-.458-2.376-3.203-1.417-5.643s2.985-4.139 4.729-3.638c.691.252 1.338.612 1.917 1.067.056.022.118.022.174 0 1.613.48 2.354 3.181 1.417 5.643z"/></g><path d="M176.352 170.432l-.672 9.332c-.131 2.028-1.958 3.497-3.947 3.363s-3.571-1.871-3.44-3.898l.672-9.333c.254-3.61-1.286-5.311-3.681-5.494-3.776-.282-4.907 3.475-4.948 4.003l-.054.891-.673 9.333c-.131 2.027-1.915 3.533-3.943 3.403-1.988-.134-3.532-1.874-3.401-3.902l.673-9.332c.254-3.611-1.287-5.311-3.722-5.492-3.776-.282-4.864 3.512-4.908 4l-.727 10.224c-.13 2.028-1.958 3.497-3.946 3.363s-3.571-1.871-3.441-3.899l1.194-16.918c.168-2.07 1.949-3.616 3.937-3.483s3.575 1.911 3.407 3.982l-.095 1.42c.275-1.716 3.134-5.038 7.839-4.745 3.408.229 6.176 2.16 7.28 6.113 1.45-2.732 4.487-5.3 8.71-4.971 4.788.327 8.368 3.933 7.803 12.006l.083.034zm31.455.251c-.494 8.25-7.956 11.753-13.202 11.45-5.285-.31-12.243-4.725-11.75-12.974.525-8.202 7.95-11.918 13.227-11.568 5.246.302 12.201 4.922 11.685 13.084l.04.008zm-17.639-1.067c-.206 3.454 1.93 5.971 4.849 6.185 2.848.158 5.342-2.064 5.548-5.519.191-3.58-1.976-6.144-4.824-6.303-2.887-.166-5.342 2.065-5.582 5.676l.009-.039zm34.52-19.955c.403.161 1.329.563 1.892 1.61.846 1.609.202 2.978-1.207 3.702-.886.483-1.973.684-3.261.201-1.208-.362-2.013-.201-2.697.161-1.047.563-1.409 1.409-1.006 2.133.12.201.362 1.006 2.214.644l2.777-.523c3.502-.684 7.165-.644 9.178 3.139 2.496 4.748-.644 9.135-4.911 11.388-3.784 2.013-6.521 1.409-8.292 1.006-.363-.12-2.214-.804-3.019-2.334-.524-1.006-.645-2.736 1.167-3.702 1.288-.684 2.455-.282 3.381.04 1.933.523 3.019.242 3.986-.281 1.65-.846 1.69-1.811 1.408-2.415-.08-.161-.523-1.087-2.656-.684l-2.214.443c-4.911.965-7.85-.363-9.46-3.381-2.335-4.427.684-8.531 4.468-10.544 2.617-1.368 5.918-1.851 8.212-.724l.04.121zm30.373 7.526c.825 2.25-.636 4.259-4.134 5.495-3.327 1.183-7.15 1.39-9.719-5.783l-3.339-9.251-.865.311c-1.689.628-3.197-.142-3.732-1.653-.567-1.557.123-3.077 1.812-3.705l.865-.311-.906-2.507c-.676-1.9.36-4.058 2.221-4.741s4.026.315 4.742 2.221l.906 2.508 2.508-.906c1.683-.588 3.158.136 3.686 1.687.534 1.511-.07 3.004-1.8 3.625l-2.508.906 3.448 9.594c.426 1.168 1.019 1.792 1.844 1.475.429-.136 1.114-.597 1.583-.727 1.511-.533 2.767.033 3.328 1.63l.06.132zm-109.997 54.568c-1.972 8.21-8.735 10.584-13.646 9.377-3.18-.765-4.831-2.857-5.193-4.185l-1.892 7.807c-.483 1.972-2.576 3.139-4.468 2.656-1.933-.483-3.221-2.455-2.738-4.427l6.079-25.232c.483-1.932 2.657-3.099 4.549-2.656 1.932.483 3.18 2.495 2.737 4.426l.08-.402c.966-1.409 3.583-2.616 6.642-1.851 4.831 1.167 9.823 6.559 7.89 14.527l-.04-.04zm-7.165-1.73c.926-3.823-.966-6.399-3.543-7.003-1.972-.482-5.152.282-6.199 4.669-1.087 4.467 1.409 6.559 3.381 7.042 2.577.604 5.435-.845 6.361-4.668v-.04zm36.309 6.318c-1.207 8.169-8.896 11.067-14.089 10.302-5.233-.764-11.794-5.714-10.627-13.883 1.167-8.13 8.896-11.188 14.17-10.423 5.192.764 11.714 5.915 10.546 14.044v-.04zm-17.47-2.535c-.483 3.42 1.449 6.117 4.307 6.559 2.818.403 5.515-1.609 5.998-5.03.523-3.541-1.449-6.278-4.307-6.68s-5.515 1.609-6.039 5.191l.041-.04zm48.024 3.058c0 8.451-5.998 12.315-11.07 12.315-3.26 0-5.354-1.65-6.038-2.858v8.009c0 2.012-1.731 3.662-3.744 3.662-1.972 0-3.703-1.61-3.703-3.662v-25.957c0-1.972 1.811-3.662 3.784-3.662s3.703 1.65 3.703 3.662v-.402c.604-1.61 2.858-3.381 5.998-3.381 4.992 0 11.07 4.065 11.07 12.274h0zm-7.366 0c0-3.903-2.456-5.996-5.072-5.996-2.013 0-4.952 1.489-4.952 5.996 0 4.628 2.899 6.037 4.952 6.037 2.616 0 5.072-2.093 5.072-6.037zm14.331-.161l-2.335-9.054c-.524-1.972.684-3.944 2.657-4.467 1.932-.483 3.945.644 4.428 2.616l2.334 9.054c.886 3.501 2.899 4.628 5.274 4.024 3.663-.965 3.502-4.869 3.381-5.352l-2.576-9.94c-.523-1.972.724-3.944 2.657-4.467 1.932-.483 3.985.644 4.508 2.616l4.267 16.459c.523 2.013-.724 4.065-2.657 4.548a3.75 3.75 0 0 1-4.508-2.696l-.362-1.369c.281 1.69-1.369 5.795-5.918 6.962-4.629 1.208-9.138-1.046-11.191-8.934h.041zm37.959-.523c-1.811.845-4.026.121-4.911-1.73l-11.07-23.341c-.886-1.851 0-4.065 1.771-4.91 1.812-.845 4.066-.08 4.911 1.771l11.07 23.341c.886 1.851 0 4.024-1.771 4.869h0zm18.839-36.58l10.185 13.763c1.207 1.65.724 3.984-.886 5.191-1.369 1.006-3.301.966-4.589-.161.161 1.368-.443 3.944-3.18 5.956-4.066 3.018-11.191 3.461-16.223-3.3-4.871-6.6-2.415-13.481 1.61-16.459 2.536-1.852 5.395-1.811 6.803-.845l.242.321c-1.167-1.609-.805-3.943.805-5.11 1.57-1.167 4.026-.926 5.193.684l.04-.04zm-.684 11.066c-2.697-3.622-5.918-3.098-7.528-1.891-2.093 1.569-2.858 4.668-.523 7.847 2.375 3.179 5.555 3.381 7.689 1.851 1.61-1.207 3.099-4.064.362-7.807zm15.135-29.498c1.65 1.288 1.771 3.341-.161 5.795-2.013 2.536-1.248 5.594-.282 6.48l8.051 6.318c1.57 1.207 1.811 3.581.604 5.151s-3.583 1.891-5.153.644l-13.364-10.464c-1.651-1.287-1.892-3.662-.685-5.231s3.583-1.892 5.233-.604l1.127.886c-1.247-1.167-2.334-5.514-.08-8.451 1.369-1.731 3.301-1.65 4.67-.564l.04.04z" fill="#fff" stroke-width="1.5" stroke-miterlimit="10" class="D"/><defs ><path id="B" d="M15.312 186.681c49.07 11.634 65.565 74.725 29.982 114.702 47.741-21.154 97.094 17.864 89.708 70.934 28.13-45.881 91.516-45.881 115.179 0-2.179-53.07 50.966-92.088 96.636-70.934-31.66-39.977-8.999-103.068 41.183-114.702-49.07-11.634-65.565-74.725-30.005-114.702-47.74 21.176-97.094-17.864-89.707-70.913-28.152 45.881-91.516 45.881-115.179 0 2.179 53.048-50.966 92.088-96.615 70.913 31.66 39.977 8.999 103.068-41.204 114.702h.022z"/></defs></svg>

<svg width="389" height="378" viewBox="0 0 389 378" fill="none" xmlns="http://www.w3.org/2000/svg">
<path d="M1.03906 191.407C50.109 203.041 66.6037 266.111 31.0214 306.088C78.7405 284.912 128.115 323.952 120.707 377L134.979 372.251C134.979 372.251 134.805 363.232 144.784 352.644C175.878 333.538 217.67 341.751 235.886 377L250.159 372.251C250.159 372.251 246.868 346.783 255.257 323.625C274.432 302.515 304.85 293.256 332.523 306.088L346.795 301.338C346.795 301.338 323.633 279.553 319.035 250.97C323.785 223.367 343.897 198.313 373.705 191.407C324.657 179.774 308.162 116.682 343.723 76.7055C331.661 82.3453 318.119 84.0046 305.052 81.4434C291.985 78.8822 280.072 72.2333 271.033 62.4576C258.264 32.7418 268.287 1.02179 268.287 1.02179L254.015 5.77108C238.763 30.7593 212.877 42.1533 188.647 39.9094C162.979 29.0165 152.999 1 152.999 1L138.858 5.7275C138.858 6.80227 138.858 7.86977 138.858 8.93001C138.873 24.115 134.232 38.9396 125.559 51.4052C116.886 63.8708 104.599 73.3778 90.3543 78.6444C67.3663 78.4048 56.428 71.869 56.428 71.869L42.2648 76.6837C73.925 116.661 51.2639 179.752 1.06086 191.386L1.03906 191.407Z" fill="#EFA500" stroke="black" stroke-width="1.59" stroke-linecap="round" stroke-linejoin="round"/>
<path d="M15.312 186.681C64.3819 198.315 80.8766 261.406 45.2943 301.383C93.0351 280.229 142.388 319.247 135.002 372.317C163.132 326.436 226.518 326.436 250.181 372.317C248.002 319.247 301.147 280.229 346.817 301.383C315.157 261.406 337.818 198.315 388 186.681C338.93 175.047 322.435 111.956 357.995 71.979C310.255 93.1547 260.901 54.1147 268.288 1.06641C240.136 46.9472 176.772 46.9472 153.109 1.06641C155.288 54.1147 102.143 93.1547 56.4941 71.979C88.1543 111.956 65.4932 175.047 15.2902 186.681H15.312Z" fill="#FFC404"/>
<path d="M15.312 186.681C64.3819 198.315 80.8766 261.406 45.2943 301.383C93.0351 280.229 142.388 319.247 135.002 372.317C163.132 326.436 226.518 326.436 250.181 372.317C248.002 319.247 301.147 280.229 346.817 301.383C315.157 261.406 337.818 198.315 388 186.681C338.93 175.047 322.435 111.956 357.995 71.979C310.255 93.1547 260.901 54.1147 268.288 1.06641C240.136 46.9472 176.772 46.9472 153.109 1.06641C155.288 54.1147 102.143 93.1547 56.4941 71.979C88.1543 111.956 65.4932 175.047 15.2902 186.681H15.312Z" stroke="black" stroke-width="1.59" stroke-linecap="round" stroke-linejoin="round"/>
<path d="M196.732 317.569C199.325 317.569 201.961 317.569 204.576 317.308C238.759 314.909 270.624 299.155 293.281 273.453C316.581 247.678 329.438 214.146 329.343 179.404C329.081 109.82 276.416 55.2251 209.5 55.2251C206.908 55.2251 204.271 55.2251 201.656 55.4647C167.475 57.8628 135.614 73.6261 112.973 99.3412C89.5739 125.14 76.6785 158.76 76.8242 193.586C77.0856 263.061 129.751 317.569 196.732 317.569Z" fill="#FFC404" stroke="black" stroke-width="1.59" stroke-linecap="round" stroke-linejoin="round"/>
<path opacity="0.2" d="M302.763 247.768C315.486 224.632 321.873 198.548 321.28 172.153C320.687 145.758 313.135 119.987 299.386 97.4463C298.587 96.2553 297.759 95.0789 296.902 93.917C317.197 117.135 328.289 146.979 328.082 177.814C328.366 249.99 272.454 312.058 203.207 316.458C187.532 317.509 171.807 315.39 156.969 310.228C163.724 311.36 249.357 330.031 302.763 247.768Z" fill="#DCF2AE"/>
<path d="M164.416 312.471L168.883 304.258C168.958 304.121 169.078 304.015 169.222 303.957C169.366 303.899 169.526 303.892 169.675 303.939C169.823 303.985 169.951 304.081 170.037 304.21C170.123 304.34 170.162 304.495 170.147 304.65L169.057 314.475L163.283 313.059" fill="black"/>
<path d="M155.393 308.767L158.226 304.977C158.444 304.672 159.141 304.977 159.119 305.391L158.618 310.597L154.609 308.898" fill="black"/>
<path d="M299.885 234.349C328.292 176.932 307.985 108.953 254.527 82.5135C201.069 56.0744 134.705 81.1871 106.298 138.604C77.8903 196.022 98.1978 264.001 151.656 290.44C205.113 316.879 271.478 291.766 299.885 234.349Z" fill="#FFC404" stroke="black" stroke-width="1.59" stroke-linecap="round" stroke-linejoin="round"/>
<g style="mix-blend-mode:multiply" opacity="0.47">
<path d="M134.737 268.877C151.595 275.36 169.453 278.855 187.511 279.204C202.179 279.632 216.787 277.159 230.496 271.924C244.205 266.69 256.743 258.799 267.392 248.704C273.807 242.454 279.322 235.341 283.777 227.572C285.846 223.625 287.658 219.55 289.203 215.372C291.136 211.252 292.852 207.034 294.345 202.736C300.04 183.25 300.243 162.571 294.934 142.978C287.242 116.662 270.284 94.0186 247.193 79.2324C285.608 94.4824 312.561 132.934 312.692 179.447C312.932 242.626 264.058 296.807 203.505 300.663C186.809 301.814 170.088 298.804 154.842 291.902C139.596 285.001 126.302 274.425 116.151 261.122C122.317 263.932 128.614 266.416 134.737 268.877Z" fill="#EFA500"/>
</g>
<g style="mix-blend-mode:color-dodge" opacity="0.2">
<path d="M125.192 153.217C123.864 152.538 122.847 151.376 122.349 149.97C121.85 148.564 121.909 147.021 122.512 145.657C123.122 144.502 123.853 143.413 124.691 142.411L124.844 142.106C125.516 140.744 126.695 139.698 128.128 139.193C129.562 138.688 131.136 138.764 132.514 139.405C133.866 140.094 134.902 141.277 135.405 142.709C135.908 144.141 135.84 145.712 135.216 147.095C134.605 148.251 133.875 149.338 133.037 150.341L132.884 150.646C132.193 151.995 131.001 153.02 129.563 153.501C128.125 153.981 126.556 153.879 125.192 153.217V153.217Z" fill="#FFC404"/>
</g>
<g style="mix-blend-mode:color-dodge" opacity="0.2">
<path d="M172.648 138.533C169.75 140.058 166.591 139.949 165.436 138.098C165.019 137.312 164.725 136.467 164.564 135.592C164.529 135.522 164.485 135.456 164.434 135.396C163.322 133.675 164.826 130.581 167.637 129.1C170.448 127.619 173.672 127.706 174.849 129.536C175.281 130.317 175.583 131.163 175.742 132.041C175.735 132.114 175.735 132.187 175.742 132.259C176.941 133.98 175.481 136.943 172.648 138.533Z" fill="#FFC404"/>
</g>
<g style="mix-blend-mode:color-dodge" opacity="0.2">
<path d="M137.947 129.122C136.487 129.885 134.897 129.841 134.308 128.904C134.118 128.5 133.972 128.076 133.873 127.641V127.641C133.328 126.769 134.069 125.223 135.485 124.482C136.901 123.741 138.514 123.763 139.124 124.7C139.337 125.095 139.484 125.521 139.56 125.963C140.104 126.835 139.385 128.36 137.947 129.122Z" fill="#FFC404"/>
</g>
<g style="mix-blend-mode:color-dodge" opacity="0.2">
<path d="M153.176 118.447C152.195 120.974 150.169 122.63 148.447 122.085C147.76 121.824 147.114 121.465 146.53 121.018C146.472 121.006 146.413 121.006 146.356 121.018C144.721 120.56 143.98 117.815 144.939 115.375C145.898 112.935 147.924 111.236 149.668 111.737C150.359 111.989 151.006 112.349 151.585 112.804C151.641 112.826 151.703 112.826 151.759 112.804C153.372 113.284 154.113 115.985 153.176 118.447Z" fill="#FFC404"/>
</g>
<path d="M176.352 170.432L175.68 179.764C175.549 181.792 173.722 183.261 171.733 183.127C169.745 182.994 168.162 181.256 168.293 179.229L168.965 169.896C169.219 166.286 167.679 164.585 165.284 164.402C161.508 164.12 160.377 167.877 160.336 168.405L160.282 169.296L159.609 178.629C159.478 180.656 157.694 182.162 155.666 182.032C153.678 181.898 152.134 180.158 152.265 178.13L152.938 168.798C153.192 165.187 151.651 163.487 149.216 163.306C145.44 163.024 144.352 166.818 144.308 167.306L143.581 177.53C143.451 179.558 141.623 181.027 139.635 180.893C137.647 180.76 136.064 179.022 136.194 176.994L137.388 160.076C137.556 158.006 139.337 156.46 141.325 156.593C143.313 156.727 144.9 158.504 144.732 160.575L144.637 161.995C144.912 160.279 147.771 156.957 152.476 157.25C155.884 157.479 158.652 159.41 159.756 163.363C161.206 160.631 164.243 158.063 168.466 158.392C173.254 158.719 176.834 162.325 176.269 170.398L176.352 170.432Z" fill="white" stroke="black" stroke-width="1.5" stroke-miterlimit="10"/>
<path d="M207.807 170.683C207.313 178.933 199.851 182.436 194.605 182.133C189.32 181.823 182.362 177.408 182.855 169.159C183.38 160.957 190.805 157.241 196.082 157.591C201.328 157.893 208.283 162.513 207.767 170.675L207.807 170.683ZM190.168 169.616C189.962 173.07 192.098 175.587 195.017 175.801C197.865 175.959 200.359 173.737 200.565 170.282C200.756 166.702 198.589 164.138 195.741 163.979C192.854 163.813 190.399 166.044 190.159 169.655L190.168 169.616Z" fill="white" stroke="black" stroke-width="1.5" stroke-miterlimit="10"/>
<path d="M224.688 149.661C225.091 149.822 226.017 150.224 226.58 151.271C227.426 152.88 226.782 154.249 225.373 154.973C224.487 155.456 223.4 155.657 222.112 155.174C220.904 154.812 220.099 154.973 219.415 155.335C218.368 155.898 218.006 156.744 218.409 157.468C218.529 157.669 218.771 158.474 220.623 158.112L223.4 157.589C226.902 156.905 230.565 156.945 232.578 160.728C235.074 165.476 231.934 169.863 227.667 172.116C223.883 174.129 221.146 173.525 219.375 173.122C219.012 173.002 217.161 172.318 216.356 170.788C215.832 169.782 215.711 168.052 217.523 167.086C218.811 166.402 219.978 166.804 220.904 167.126C222.837 167.649 223.923 167.368 224.89 166.845C226.54 165.999 226.58 165.034 226.298 164.43C226.218 164.269 225.775 163.343 223.642 163.746L221.428 164.189C216.517 165.154 213.578 163.826 211.968 160.808C209.633 156.381 212.652 152.277 216.436 150.264C219.053 148.896 222.354 148.413 224.648 149.54L224.688 149.661Z" fill="white" stroke="black" stroke-width="1.5" stroke-miterlimit="10"/>
<path d="M255.061 157.187C255.886 159.437 254.425 161.446 250.927 162.682C247.6 163.865 243.777 164.072 241.208 156.899L237.869 147.648L237.004 147.959C235.315 148.587 233.807 147.817 233.272 146.306C232.705 144.749 233.395 143.229 235.084 142.601L235.949 142.29L235.043 139.783C234.367 137.883 235.403 135.725 237.264 135.042C239.125 134.36 241.29 135.357 242.006 137.263L242.912 139.771L245.42 138.865C247.103 138.277 248.578 139.001 249.106 140.552C249.64 142.063 249.036 143.556 247.306 144.177L244.798 145.083L248.246 154.677C248.672 155.845 249.265 156.469 250.09 156.152C250.519 156.016 251.204 155.555 251.673 155.425C253.184 154.892 254.44 155.458 255.001 157.055L255.061 157.187Z" fill="white" stroke="black" stroke-width="1.5" stroke-miterlimit="10"/>
<path d="M145.064 211.755C143.092 219.965 136.329 222.339 131.418 221.132C128.238 220.367 126.587 218.275 126.225 216.947L124.333 224.754C123.85 226.726 121.757 227.893 119.865 227.41C117.932 226.927 116.644 224.955 117.127 222.983L123.206 197.751C123.689 195.819 125.863 194.652 127.755 195.095C129.687 195.578 130.935 197.59 130.492 199.521L130.572 199.119C131.538 197.71 134.155 196.503 137.214 197.268C142.045 198.435 147.037 203.827 145.104 211.795L145.064 211.755ZM137.899 210.025C138.825 206.202 136.933 203.626 134.356 203.022C132.384 202.54 129.204 203.304 128.157 207.691C127.07 212.158 129.566 214.25 131.538 214.733C134.115 215.337 136.973 213.888 137.899 210.065V210.025Z" fill="white" stroke="black" stroke-width="1.5" stroke-miterlimit="10"/>
<path d="M174.208 216.343C173.001 224.512 165.312 227.41 160.119 226.645C154.886 225.881 148.325 220.931 149.492 212.762C150.659 204.632 158.388 201.574 163.662 202.339C168.854 203.103 175.376 208.254 174.208 216.383V216.343ZM156.738 213.808C156.255 217.228 158.187 219.925 161.045 220.367C163.863 220.77 166.56 218.758 167.043 215.337C167.566 211.796 165.594 209.059 162.736 208.657C159.878 208.254 157.221 210.266 156.697 213.848L156.738 213.808Z" fill="white" stroke="black" stroke-width="1.5" stroke-miterlimit="10"/>
<path d="M204.762 216.866C204.762 225.317 198.764 229.181 193.692 229.181C190.432 229.181 188.338 227.531 187.654 226.323V234.332C187.654 236.344 185.923 237.994 183.91 237.994C181.938 237.994 180.207 236.384 180.207 234.332V208.375C180.207 206.403 182.018 204.713 183.991 204.713C185.963 204.713 187.694 206.363 187.694 208.375V207.973C188.298 206.363 190.552 204.592 193.692 204.592C198.684 204.592 204.762 208.657 204.762 216.866V216.866ZM197.396 216.866C197.396 212.963 194.94 210.87 192.324 210.87C190.311 210.87 187.372 212.359 187.372 216.866C187.372 221.494 190.271 222.903 192.324 222.903C194.94 222.903 197.396 220.81 197.396 216.866Z" fill="white" stroke="black" stroke-width="1.5" stroke-miterlimit="10"/>
<path d="M211.727 216.705L209.392 207.651C208.868 205.679 210.076 203.707 212.049 203.184C213.981 202.701 215.994 203.828 216.477 205.8L218.811 214.854C219.697 218.355 221.71 219.482 224.085 218.878C227.748 217.913 227.587 214.009 227.466 213.526L224.89 203.586C224.367 201.614 225.614 199.642 227.547 199.119C229.479 198.636 231.532 199.763 232.055 201.735L236.322 218.194C236.845 220.207 235.598 222.259 233.665 222.742C231.733 223.225 229.68 222.058 229.157 220.046L228.795 218.677C229.076 220.367 227.426 224.472 222.877 225.639C218.248 226.847 213.739 224.593 211.686 216.705H211.727Z" fill="white" stroke="black" stroke-width="1.5" stroke-miterlimit="10"/>
<path d="M249.686 216.182C247.875 217.027 245.66 216.303 244.775 214.452L233.705 191.111C232.819 189.26 233.705 187.046 235.476 186.201C237.288 185.356 239.542 186.121 240.387 187.972L251.457 211.313C252.343 213.164 251.457 215.337 249.686 216.182V216.182Z" fill="white" stroke="black" stroke-width="1.5" stroke-miterlimit="10"/>
<path d="M268.525 179.602L278.71 193.365C279.917 195.015 279.434 197.349 277.824 198.556C276.455 199.562 274.523 199.522 273.235 198.395C273.396 199.763 272.792 202.339 270.055 204.351C265.989 207.369 258.864 207.812 253.832 201.051C248.961 194.451 251.417 187.57 255.442 184.592C257.978 182.74 260.837 182.781 262.245 183.747L262.487 184.068C261.32 182.459 261.682 180.125 263.292 178.958C264.862 177.791 267.318 178.032 268.485 179.642L268.525 179.602ZM267.841 190.668C265.144 187.046 261.923 187.57 260.313 188.777C258.22 190.346 257.455 193.445 259.79 196.624C262.165 199.803 265.345 200.005 267.479 198.475C269.089 197.268 270.578 194.411 267.841 190.668Z" fill="white" stroke="black" stroke-width="1.5" stroke-miterlimit="10"/>
<path d="M282.976 161.17C284.626 162.458 284.747 164.511 282.815 166.965C280.802 169.501 281.567 172.559 282.533 173.445L290.584 179.763C292.154 180.97 292.395 183.344 291.188 184.914C289.98 186.483 287.605 186.805 286.035 185.558L272.671 175.094C271.02 173.807 270.779 171.432 271.986 169.863C273.194 168.293 275.569 167.971 277.219 169.259L278.346 170.145C277.099 168.978 276.012 164.631 278.266 161.694C279.635 159.963 281.567 160.044 282.936 161.13L282.976 161.17Z" fill="white" stroke="black" stroke-width="1.5" stroke-miterlimit="10"/>
</svg>
